Obsidian/actions/16s/text-field.svg

<svg height="16" viewBox="0 0 16 16" width="16" xmlns="http://www.w3.org/2000/svg"><path d="m2 1a1.0001 1.0001 0 0 0 -1 1v1a1.0001 1.0001 0 0 0 1 1h1v8h-1a1.0001 1.0001 0 0 0 -1 1v1a1.0001 1.0001 0 0 0 1 1h5a1.0001 1.0001 0 0 0 1-1v-1a1.0001 1.0001 0 0 0 -1-1h-1v-8h1a1.0001 1.0001 0 0 0 1-1v-1a1.0001 1.0001 0 0 0 -1-1zm6 7a1.0001 1.0001 0 0 0 -1 1v2a1.0001 1.0001 0 0 0 1 1h7a1.0001 1.0001 0 0 0 1-1v-2a1.0001 1.0001 0 0 0 -1-1h-1a1.0001 1.0001 0 0 0 -1 1h-3a1.0001 1.0001 0 0 0 -1-1z" fill="#bebebe"/></svg>

<svg xmlns="http://www.w3.org/2000/svg" width="16" height="16" viewBox="0 0 16 16">
 <defs>
  <style id="current-color-scheme" type="text/css">
   .ColorScheme-Text { color:#bebebe; } .ColorScheme-Highlight { color:#4285f4; }
  </style>
 </defs>
 <path style="fill:currentColor" class="ColorScheme-Text" d="M 2 1 A 1.0001 1.0001 0 0 0 1 2 L 1 3 A 1.0001 1.0001 0 0 0 2 4 L 3 4 L 3 12 L 2 12 A 1.0001 1.0001 0 0 0 1 13 L 1 14 A 1.0001 1.0001 0 0 0 2 15 L 7 15 A 1.0001 1.0001 0 0 0 8 14 L 8 13 A 1.0001 1.0001 0 0 0 7 12 L 6 12 L 6 4 L 7 4 A 1.0001 1.0001 0 0 0 8 3 L 8 2 A 1.0001 1.0001 0 0 0 7 1 L 2 1 z M 8 8 A 1.0001 1.0001 0 0 0 7 9 L 7 11 A 1.0001 1.0001 0 0 0 8 12 L 15 12 A 1.0001 1.0001 0 0 0 16 11 L 16 9 A 1.0001 1.0001 0 0 0 15 8 L 14 8 A 1.0001 1.0001 0 0 0 13 9 L 10 9 A 1.0001 1.0001 0 0 0 9 8 L 8 8 z"/>
</svg>
